X: 16701
T: Happy Hours
R: polka
M: 2/4
K: Dmajor
z2|A,2DF A3A|B2F2 A4|A,2DF A3F|A2_A2 G4|
[1,3 C2EG B3A|c2G2 B4||c2E2 G4|B2A2 F4:|
[2,4 G2BG E4|F2AF D4|A3A B2c2|d6||
|:zA|B2A2 G2F2|A2 E4 (3FGA|c3B A2G2|B2 A4 zA|
[1,3 d4 ce3|dd3 E3B|c2 B4 c2|B2 A4:|
[2,4 d4 c4|(3eee ez A2AB|AGFE D4-|D6||
z2|afdf afbf|bfdf a4||bgeg agfe|dABc defg|
afdf afbf|afdf a2d2|c'bag fedc|e2d2 d2:|
|:FG|A2F2 fedc|B2G2 gfed|cdcB AGFE|1 ,3 FGAB A2:|2 ,4 D6||

